outputs/icons/maps/layers_round.svg

<svg width="1200" height="1200" viewBox="0 0 1200 1200" fill="none" xmlns="http://www.w3.org/2000/svg"><g clip-path="url(#clip0_238_1722)"><path d="M630 903C612 917 586.5 917 568.5 903L261 664C242.999 650 217.999 650 199.999 664C174.5 684 174.5 722.5 199.999 742.5L538 1005.5C574 1033.5 624.5 1033.5 661 1005.5L999 742.5C1024.5 722.5 1024.5 684 999 664L998.5 663.5C980.5 649.5 955.5 649.5 937.5 663.5L630 903ZM661.5 752L999.5 489.001C1025 469.001 1025 430.001 999.5 410.001L661.5 147.001C625.5 119.001 575 119.001 538.5 147.001L200.5 410.501C174.999 430.501 174.999 469.501 200.5 489.501L538.5 752.5C574.5 780.5 625.5 780.5 661.5 752Z" fill="#1D1E23"/></g><defs><clipPath id="clip0_238_1722"><path width="24" fill="white" d="M0 0H1200V1200H0V0z"/></clipPath></defs></svg>

<svg xmlns="http://www.w3.org/2000/svg" width="1200" height="1200" fill="none"><g clip-path="url(#a)"><path fill="#000" d="M629.995 903c-18 14-43.5 14-61.5 0L260.996 664a49.55 49.55 0 0 0-61 0c-25.5 20-25.5 58.5 0 78.5l337.999 263c36 28 86.5 28 123 0l338-263c25.5-20 25.5-58.5 0-78.5l-.5-.5c-18-14-43-14-61 0zm31.5-151 338-262.999c25.5-20 25.5-59 0-79l-338-263c-36-28-86.5-28-123 0l-337.999 263.5c-25.5 20-25.5 59 0 79L538.495 752.5c36 28 87 28 123-.5"/></g><defs><clipPath id="a"><path fill="#fff" d="M0 0h1200v1200H0z"/></clipPath></defs></svg>
